X: 1
T: Lucy Farr's Barndance No.1
R: barndance
S: tradtunes John Adams 2019-10-10
M: 4/4
L: 1/8
K: Gmaj
(3DEF |"G"G2. G2. G2. G2. | G>AB>G (3EFE D2 | B2. B2. B2. B2. | B>cd>B "D"A4 |
"G"B>c (3dcB G2 G2 | G>A (3BAG E2 D2 | D>EG>A B<d c>B | "D"A2 A2 "G"G4 |]
"G"B>cd>B G2 G2 | G>AB>G E2 D2 | D>EG>A B<dc>B | B2 "D"A2 "D"A2 |
"G"B>cd>B G2 G2 | G>AB>G E2 D2 | D>EG>A B<dc>B |"D"A2F2"G"G4]
